public/img/ui/warning.svg

<svg fill="none" height="40" viewBox="0 0 40 40" width="40" xmlns="http://www.w3.org/2000/svg" xmlns:xlink="http://www.w3.org/1999/xlink"><clipPath id="a"><path d="m0 0h40v40h-40z"/></clipPath><mask id="b" height="40" maskUnits="userSpaceOnUse" width="40" x="0" y="0"><path d="m40 0h-40v40h40z" fill="#fff"/></mask><g clip-path="url(#a)"><g mask="url(#b)" stroke="#53360b" stroke-linecap="round" stroke-linejoin="round" stroke-width="2"><path d="m38.3601 29.7309-14.27-24.71996c-1.82-3.15-6.36-3.15-8.18 0l-14.27003 24.71996c-1.820002 3.15.45 7.08 4.09 7.08h28.54003c3.63 0 5.91-3.93 4.09-7.08z"/><path d="m20 32c1.6569 0 3-1.3431 3-3s-1.3431-3-3-3-3 1.3431-3 3 1.3431 3 3 3z"/><path d="m21.21 22.16.35-1.38c.3-1.18.44-2.4.44-3.61v-7.26c0-1.05-.85-1.91-1.91-1.91h-.18c-1.05 0-1.91.85-1.91 1.91v7.26c0 1.22.15 2.43.44 3.61l.35 1.38c.31 1.26 2.1 1.26 2.42 0z"/></g></g></svg>

<svg width="40" height="40" viewBox="0 0 40 40" fill="none" xmlns="http://www.w3.org/2000/svg">
<g id="Layer_1" clip-path="url(#clip0_502_181)">
<g id="Clip path group">
<mask id="mask0_502_181" style="mask-type:luminance" maskUnits="userSpaceOnUse" x="0" y="0" width="40" height="40">
<g id="clippath">
<path id="Vector" d="M40 0H0V40H40V0Z" fill="white"/>
</g>
</mask>
<g mask="url(#mask0_502_181)">
<g id="Group">
<path id="Vector_2" d="M38.3601 29.7309L24.0901 5.01094C22.2701 1.86094 17.7301 1.86094 15.9101 5.01094L1.64007 29.7309C-0.179932 32.8809 2.09007 36.8109 5.73007 36.8109H34.2701C37.9001 36.8109 40.1801 32.8809 38.3601 29.7309Z" stroke="#53360B" stroke-width="2" stroke-linecap="round" stroke-linejoin="round"/>
<path id="Vector_3" d="M20 32C21.6569 32 23 30.6569 23 29C23 27.3431 21.6569 26 20 26C18.3431 26 17 27.3431 17 29C17 30.6569 18.3431 32 20 32Z" stroke="#53360B" stroke-width="2" stroke-linecap="round" stroke-linejoin="round"/>
<path id="Vector_4" d="M21.21 22.16L21.56 20.78C21.86 19.6 22 18.38 22 17.17V9.91C22 8.86 21.15 8 20.09 8H19.91C18.86 8 18 8.85 18 9.91V17.17C18 18.39 18.15 19.6 18.44 20.78L18.79 22.16C19.1 23.42 20.89 23.42 21.21 22.16Z" stroke="#53360B" stroke-width="2" stroke-linecap="round" stroke-linejoin="round"/>
</g>
</g>
</g>
</g>
<defs>
<clipPath id="clip0_502_181">
<rect width="40" height="40" fill="white"/>
</clipPath>
</defs>
</svg>
